symbols/web/on_device_training/materialsymbolssharp/on_device_training_wght600grad200_40px.svg

<svg xmlns="http://www.w3.org/2000/svg" height="40" width="40"><path d="M18.458 28.083v-1.416h3.125v1.416Zm0-2.166v-1.459q-.75-.458-1.208-1.187-.458-.729-.458-1.646 0-1.333.916-2.271.917-.937 2.292-.937 1.375 0 2.312.958.938.958.938 2.25 0 .917-.479 1.646-.479.729-1.188 1.187v1.459Zm8.167.5L25 24.833q.458-.75.708-1.541.25-.792.25-1.625 0-.834-.229-1.625-.229-.792-.687-1.5l1.583-1.625q.792 1.041 1.208 2.25.417 1.208.417 2.5 0 1.291-.417 2.5-.416 1.208-1.208 2.25Zm-13.25 0q-.792-1.042-1.187-2.25-.396-1.209-.396-2.5 0-3.417 2.5-5.771t6-2.479v-1.584l3.5 2.75-3.5 2.75v-1.625q-2.584.042-4.396 1.75-1.813 1.709-1.813 4.209 0 .833.209 1.625.208.791.666 1.5ZM5.667 39.375V.625h28.666v38.75Zm4-8.375h20.666V9H9.667Zm0 3.125v1.25h20.666v-1.25Zm0-28.25h20.666v-1.25H9.667Zm0-1.25v1.25Zm0 30.75v-1.25Z"/></svg>

<svg xmlns="http://www.w3.org/2000/svg" height="40" width="40"><path d="M18.458 28.083V26.667H21.583V28.083ZM18.458 25.917V24.458Q17.708 24 17.25 23.271Q16.792 22.542 16.792 21.625Q16.792 20.292 17.708 19.354Q18.625 18.417 20 18.417Q21.375 18.417 22.312 19.375Q23.25 20.333 23.25 21.625Q23.25 22.542 22.771 23.271Q22.292 24 21.583 24.458V25.917ZM26.625 26.417 25 24.833Q25.458 24.083 25.708 23.292Q25.958 22.5 25.958 21.667Q25.958 20.833 25.729 20.042Q25.5 19.25 25.042 18.542L26.625 16.917Q27.417 17.958 27.833 19.167Q28.25 20.375 28.25 21.667Q28.25 22.958 27.833 24.167Q27.417 25.375 26.625 26.417ZM13.375 26.417Q12.583 25.375 12.188 24.167Q11.792 22.958 11.792 21.667Q11.792 18.25 14.292 15.896Q16.792 13.542 20.292 13.417V11.833L23.792 14.583L20.292 17.333V15.708Q17.708 15.75 15.896 17.458Q14.083 19.167 14.083 21.667Q14.083 22.5 14.292 23.292Q14.5 24.083 14.958 24.792ZM5.667 39.375V0.625H34.333V39.375ZM9.667 31H30.333V9H9.667ZM9.667 34.125V35.375H30.333V34.125ZM9.667 5.875H30.333V4.625H9.667ZM9.667 4.625V5.875ZM9.667 35.375V34.125Z"/></svg>
